shader Blackhole

(
	float input = 0.0
	[[ string label = "Facing Ratio"]],

	output float outColor = 0.0
	[[ string label = "Color" ]],

	float powExp = 1.0
	[[ string label = "pow exponent"]]
)

{
	float fit(float value, float min1, float max1, float min2, float max2){
		return min2 + (value - min1) * (max2 - min2) / (max1 - min1);
	}

	float x = smoothstep(0,1,input);
	x = 1-pow(1-x, 1/(1/4.5));
	x = fit(x, 0, 1, pow(0.03, 0.1), 1 );
	x = pow(x, 10);
	x = 1.0/x;
	outColor = x;
}
